src/icons/svelte.svg

<svg viewBox="0 0 300 300" xmlns="http://www.w3.org/2000/svg">
  <path
    d="M175.939 24.328C162.902 24.58 149.93 28.2 138.468 35.502L79.9113 72.818C72.0082 77.782 65.2269 84.3393 60.0003 92.0713C54.7737 99.8033 51.2167 108.54 49.5563 117.724C46.7556 133.225 49.2044 149.217 56.5153 163.169C51.505 170.771 48.091 179.31 46.4803 188.271C44.8078 197.658 45.0286 207.284 47.1299 216.585C49.2312 225.885 53.1705 234.671 58.7163 242.427C82.0673 275.837 128.184 285.738 161.526 264.497L220.085 227.339C227.979 222.365 234.754 215.804 239.979 208.074C245.204 200.344 248.767 191.612 250.44 182.433C253.23 166.937 250.774 150.953 243.458 137.011C248.467 129.406 251.888 120.868 253.517 111.909C255.185 102.522 254.961 92.8967 252.86 83.5972C250.759 74.2977 246.822 65.5113 241.281 57.753V57.573C225.957 35.648 200.828 23.847 175.939 24.328ZM181.076 53.008C188.223 53.3361 195.197 55.3086 201.456 58.7721C207.716 62.2356 213.092 67.0966 217.166 72.977C220.503 77.6382 222.874 82.9199 224.139 88.5112C225.404 94.1025 225.537 99.8904 224.531 105.534C224.181 107.379 223.715 109.201 223.138 110.989L222.015 114.359L219.029 112.112C212.099 107.025 204.355 103.153 196.127 100.662L193.883 100.011L194.084 97.765C194.344 94.6716 193.501 91.5861 191.705 89.054C190.057 86.7403 187.744 84.9832 185.073 84.0164C182.402 83.0497 179.499 82.9191 176.752 83.642C175.481 83.9789 174.269 84.5091 173.158 85.214L114.58 122.464C113.149 123.368 111.922 124.559 110.975 125.962C110.028 127.365 109.382 128.949 109.078 130.614C108.785 132.32 108.832 134.068 109.218 135.756C109.603 137.443 110.319 139.038 111.324 140.448C112.955 142.781 115.256 144.563 117.922 145.557C120.589 146.552 123.495 146.712 126.254 146.017C127.523 145.671 128.733 145.141 129.848 144.444L152.301 130.21C155.97 127.856 159.985 126.091 164.199 124.978C173.413 122.578 183.14 123.066 192.068 126.375C200.995 129.684 208.69 135.655 214.113 143.48C217.448 148.143 219.817 153.424 221.081 159.015C222.346 164.606 222.48 170.393 221.476 176.037C220.485 181.572 218.349 186.839 215.206 191.502C212.063 196.164 207.981 200.12 203.222 203.115L144.642 240.431C140.964 242.766 136.952 244.53 132.744 245.661C123.526 248.053 113.795 247.56 104.866 244.248C95.9366 240.937 88.238 234.965 82.8093 227.14C79.4764 222.477 77.11 217.194 75.8492 211.603C74.5885 206.012 74.459 200.225 75.4683 194.583C75.7989 192.748 76.2634 190.94 76.8583 189.173L77.9603 185.803L80.9683 188.049C87.8844 193.098 95.6055 196.939 103.804 199.41L106.048 200.06L105.847 202.307C105.631 205.385 106.497 208.443 108.294 210.951C109.932 213.305 112.252 215.101 114.942 216.097C117.631 217.092 120.561 217.24 123.337 216.52C124.607 216.178 125.817 215.648 126.929 214.947L185.396 177.631C186.832 176.728 188.064 175.534 189.011 174.126C189.959 172.719 190.602 171.129 190.898 169.458C191.197 167.756 191.153 166.01 190.767 164.325C190.381 162.641 189.662 161.05 188.652 159.647C187.014 157.293 184.694 155.497 182.005 154.502C179.315 153.506 176.385 153.359 173.609 154.079C172.339 154.415 171.127 154.945 170.017 155.649L147.564 169.907C143.892 172.235 139.887 173.992 135.687 175.116C126.484 177.494 116.773 176.996 107.861 173.688C98.9493 170.381 91.2647 164.423 85.8413 156.616C82.5183 151.949 80.1611 146.664 78.908 141.074C77.655 135.483 77.5313 129.698 78.5443 124.059C79.5355 118.524 81.6709 113.257 84.8139 108.594C87.9569 103.931 92.0384 99.9755 96.7973 96.98L155.443 59.664C159.094 57.3398 163.076 55.5832 167.254 54.454C171.763 53.283 176.423 52.7963 181.076 53.01V53.008Z"
    fill="#FF5722"
  />
</svg>

<svg viewBox="0 0 300 300" xmlns="http://www.w3.org/2000/svg"><path d="M175.94 24.328c-13.037.252-26.009 3.872-37.471 11.174L79.912 72.818a67.134 67.134 0 0 0-30.355 44.906 70.794 70.794 0 0 0 6.959 45.445 67.224 67.224 0 0 0-10.035 25.102 71.535 71.535 0 0 0 12.236 54.156c23.351 33.41 69.468 43.311 102.81 22.07l58.559-37.158a67.359 67.359 0 0 0 30.355-44.906 70.771 70.771 0 0 0-6.982-45.422 67.65 67.65 0 0 0 10.059-25.102 71.625 71.625 0 0 0-12.236-54.156v-.18c-15.324-21.925-40.453-33.727-65.342-33.246zm5.137 28.68a46.5 46.5 0 0 1 36.09 19.969 42.975 42.975 0 0 1 7.365 32.557 45.242 45.242 0 0 1-1.393 5.455l-1.123 3.37-2.986-2.247a75.846 75.846 0 0 0-22.902-11.45l-2.244-.651.201-2.246a13.157 13.157 0 0 0-2.379-8.711 13.988 13.988 0 0 0-14.953-5.412 12.843 12.843 0 0 0-3.594 1.572l-58.578 37.25a12.237 12.237 0 0 0-5.502 8.15 13.112 13.112 0 0 0 2.246 9.834 14.033 14.033 0 0 0 14.93 5.569 13.472 13.472 0 0 0 3.594-1.573l22.453-14.234a41.785 41.785 0 0 1 11.898-5.232 46.477 46.477 0 0 1 49.914 18.502 43.02 43.02 0 0 1 7.363 32.557 40.415 40.415 0 0 1-18.254 27.078l-58.58 37.316a43.065 43.065 0 0 1-11.898 5.23A46.545 46.545 0 0 1 82.81 227.14a42.975 42.975 0 0 1-7.341-32.557 38.17 38.17 0 0 1 1.39-5.41l1.102-3.37 3.008 2.246a75.846 75.846 0 0 0 22.836 11.361l2.244.65-.201 2.247a13.247 13.247 0 0 0 2.447 8.644 14.033 14.033 0 0 0 15.043 5.569 13.135 13.135 0 0 0 3.592-1.573l58.467-37.316a12.169 12.169 0 0 0 5.502-8.173 12.955 12.955 0 0 0-2.246-9.811 14.033 14.033 0 0 0-15.043-5.568 12.843 12.843 0 0 0-3.592 1.57l-22.453 14.258a42.885 42.885 0 0 1-11.877 5.209 46.522 46.522 0 0 1-49.846-18.5 43.02 43.02 0 0 1-7.297-32.557A40.415 40.415 0 0 1 96.798 96.98l58.646-37.316a42.773 42.773 0 0 1 11.811-5.21 46.5 46.5 0 0 1 13.822-1.444z" style="fill:#ff5722;stroke-width:2.2453"/></svg>
